src/styles/icons/selected.svg

<svg width="28" height="28" fill="current" xmlns="http://www.w3.org/2000/svg"><path d="M27.3333 4.9065 12.12 20.1332l-5.65337-5.6534 1.88-1.88L12.12 16.3732 25.4533 3.03984l1.88 1.86666Zm-2.9467 6.72c.1734.76.28 1.56.28 2.3733 0 5.8934-4.7733 10.6667-10.6666 10.6667-5.89337 0-10.66671-4.7733-10.66671-10.6667C3.33329 8.1065 8.10663 3.33317 14 3.33317c2.1066 0 4.0533.61333 5.7066 1.66667l1.92-1.92C19.4666 1.55984 16.84.666504 14 .666504 6.63996.666504.666626 6.63984.666626 13.9998c0 7.36 5.973334 13.3334 13.333374 13.3334 7.36 0 13.3333-5.9734 13.3333-13.3334 0-1.5866-.2933-3.1066-.8-4.51996l-2.1467 2.14666Z"/></svg>

<svg width="28" height="28" viewBox="0 0 28 28" fill="current" xmlns="http://www.w3.org/2000/svg">
<path d="M27.3333 4.9065L12.12 20.1332L6.46663 14.4798L8.34663 12.5998L12.12 16.3732L25.4533 3.03984L27.3333 4.9065ZM24.3866 11.6265C24.56 12.3865 24.6666 13.1865 24.6666 13.9998C24.6666 19.8932 19.8933 24.6665 14 24.6665C8.10663 24.6665 3.33329 19.8932 3.33329 13.9998C3.33329 8.1065 8.10663 3.33317 14 3.33317C16.1066 3.33317 18.0533 3.9465 19.7066 4.99984L21.6266 3.07984C19.4666 1.55984 16.84 0.666504 14 0.666504C6.63996 0.666504 0.666626 6.63984 0.666626 13.9998C0.666626 21.3598 6.63996 27.3332 14 27.3332C21.36 27.3332 27.3333 21.3598 27.3333 13.9998C27.3333 12.4132 27.04 10.8932 26.5333 9.47984L24.3866 11.6265Z" fill="current"/>
</svg>
